X:7
T: Bune ziua! Kislány!
O: Trunk (Bákó), 1929
M:3/4
L:1/4
Q:1/4=138
K:F
DB A/G/ | A/A/A z | 
c d B/A/ | B/A/G z | 
DB A/G/ | A/G/F z |
GA F/E/ | F/E/D z | 

